X: 42651
T: Whiskey O Rowdledum Ro
R: slip jig
M: 9/8
K: Amajor
cee efc eeA|cee efc cBB|cee efe ecB|ABc ~A2F FEE||
EcE BAF A2B|cAA ~A3 FEE|Acc BAF ~A2E|ABA ~A2F FEE||

